assets/images/icons/ico-8.svg

<svg width="49" height="49" viewBox="0 0 49 49" fill="none" xmlns="http://www.w3.org/2000/svg">
<path d="M29.2629 2.59676C29.3714 2.09449 29.8183 1.69844 30.331 1.6511C30.9591 1.59221 31.563 2.10488 31.6323 2.72724C31.653 3.0771 31.5341 3.4131 31.4718 3.75372C30.1347 10.6597 28.8022 17.5668 27.4628 24.4728C26.7504 24.1033 25.9444 23.9798 25.1523 23.9336C25.6846 20.965 26.3012 18.0125 26.8485 15.0474C27.6637 10.8987 28.4558 6.74659 29.2629 2.59676Z" fill="#F7F7F7"/>
<path d="M38.8159 22.4516C38.757 21.8847 39.4683 21.402 39.966 21.7045C40.1773 21.805 40.2997 22.0105 40.4197 22.2022C40.4555 22.5601 40.3389 22.9781 39.9764 23.1248C39.4914 23.3903 38.8055 23.0151 38.8159 22.4516Z" fill="#F7F7F7"/>
<path d="M21.8555 27.8861C22.3196 26.7626 23.293 25.7408 24.5435 25.5722C25.2351 25.4313 25.9545 25.5676 26.6023 25.8262C27.9809 26.4058 29.012 27.6517 29.4057 29.0858C28.1483 29.5523 26.7916 29.6804 25.4591 29.6412C24.1001 29.5442 22.7307 28.953 21.8555 27.8861Z" fill="#F7F7F7"/>
<path d="M44.4695 26.455C45.2558 26.1941 46.1275 26.9457 45.9832 27.7621C45.9359 28.5703 44.9117 29.0934 44.2316 28.6512C43.5053 28.3152 43.4095 27.1755 44.0388 26.7021C44.1669 26.597 44.309 26.5035 44.4695 26.455Z" fill="#F7F7F7"/>
<path d="M13.3989 35.7762C16.4068 34.3029 19.223 32.2314 21.0623 29.3887C22.5911 30.8516 24.8104 31.4647 26.8876 31.198C27.8367 31.1818 28.7685 30.9705 29.6726 30.6934C29.8065 31.6887 29.9081 32.6887 29.9462 33.6921C28.7085 34.3641 27.8321 35.6134 27.5757 36.9932C27.5804 37.2057 27.3529 37.2553 27.212 37.3489C25.98 38.0012 25.0921 39.2298 24.8115 40.59C24.5413 41.8566 24.8889 43.2006 25.6302 44.2479C23.695 45.5296 21.4134 46.2732 19.096 46.3967C20.4019 45.5134 21.59 44.4638 22.6304 43.2792C22.9029 43.0124 23.016 42.569 22.7851 42.24C22.5103 41.7666 21.7563 41.755 21.4457 42.1949C19.9112 43.9581 17.9967 45.3633 15.9057 46.3967C15.789 46.3782 15.6736 46.3586 15.5593 46.3378C14.6598 46.294 13.7661 46.1635 12.8851 45.9833C12.1265 45.8332 11.3529 45.7305 10.622 45.4672C11.7951 45.1324 12.9116 44.6289 14.0236 44.1359C17.3513 42.5898 20.4908 40.4098 22.613 37.3696C22.822 37.1029 22.9237 36.7184 22.725 36.4159C22.4849 35.8986 21.6662 35.8651 21.381 36.3582C20.0947 38.2102 18.3951 39.7471 16.5015 40.9583C13.9728 42.606 11.1381 43.7237 8.25378 44.5712C8.11637 44.6162 7.98474 44.6093 7.85542 44.5481C6.71693 44.0562 5.61655 43.4454 4.66627 42.6418C7.76767 42.2273 10.7917 41.2735 13.601 39.9029C14.1263 39.6997 14.2026 38.8903 13.758 38.5647C13.5375 38.3719 13.1968 38.3315 12.9382 38.4654C9.94881 40.0357 6.60262 40.7239 3.29916 41.2712C2.79689 40.6154 2.42393 39.8729 2.19531 39.0808C6.04724 38.4619 9.8853 37.5082 13.3989 35.7762Z" fill="#F7F7F7"/>
<path d="M36.3114 34.6558C37.6196 34.2101 39.1287 34.3637 40.2845 35.1361C41.3364 35.807 42.0327 36.9374 42.2844 38.1486C42.3525 38.5551 42.8017 38.6694 43.1458 38.7317C44.2669 38.9581 45.2657 39.7513 45.7033 40.8136C46.1375 41.7396 46.1167 42.8619 45.6594 43.7764C44.9516 45.4056 42.8998 46.2705 41.2383 45.6354C40.7418 45.5407 40.3515 45.0131 39.8157 45.1747C39.4728 45.3144 39.2673 45.6458 39.0006 45.8848C38.0688 46.7462 36.809 47.2762 35.532 47.2404C33.979 47.2923 32.4329 46.5418 31.4791 45.3213C31.2667 44.9842 30.8637 44.6898 30.4504 44.8491C29.8996 45.0916 29.3477 45.401 28.7253 45.386C27.0949 45.4703 25.5465 44.0616 25.5338 42.4185C25.4438 41.1219 26.2994 39.8148 27.5325 39.3945C27.887 39.2825 28.3039 39.055 28.2992 38.6267C28.3027 37.5967 28.8396 36.576 29.7033 36.0091C30.7425 35.307 32.2135 35.3197 33.2227 36.0737C33.5287 36.3451 34.0713 36.3635 34.3427 36.031C34.8761 35.4213 35.5505 34.9375 36.3114 34.6558Z" fill="#48FDBC"/>
<path d="M28.4752 0.851671C29.4624 -0.174816 31.251 -0.208301 32.2902 0.756989C32.931 1.33432 33.3063 2.22571 33.2243 3.08823C32.9102 4.72669 32.5973 6.36514 32.2763 8.00244C31.2094 13.5298 30.1402 19.0582 29.071 24.5856C29.0214 24.8488 28.9937 25.1167 28.9001 25.3696C29.138 25.6675 29.4382 25.9088 29.6737 26.2102C30.5744 27.3036 31.0824 28.6881 31.2106 30.0921C31.3491 31.1094 31.4646 32.1312 31.5235 33.1566C32.2117 33.0376 32.9125 33.1069 33.5846 33.2824C33.8859 33.3806 34.1792 33.5041 34.4644 33.645C35.3558 32.8171 36.4931 32.2548 37.6997 32.0827C39.5483 31.7848 41.5228 32.398 42.8599 33.7143C43.6381 34.4532 44.1866 35.407 44.4983 36.4312C45.8597 36.7452 47.042 37.6816 47.7314 38.8883C48.4092 40.1076 48.6274 41.6086 48.1771 42.9434C47.7591 44.4237 46.6183 45.6568 45.2038 46.2469C44.2536 46.6129 43.1994 46.7572 42.1971 46.5321C41.7745 46.4489 41.3692 46.2965 40.9605 46.1672C39.4918 47.6348 37.321 48.2756 35.2773 47.9904C33.7451 47.7421 32.3017 46.9708 31.266 45.8104C29.8112 46.4351 28.0803 46.2538 26.7744 45.367C24.1684 47.3138 20.836 48.0343 17.633 48.025C17.0187 48.0042 16.3999 48.0516 15.7913 47.9558C12.593 47.7456 9.40727 47.0286 6.486 45.6926C4.83138 44.8774 3.30608 43.7586 2.12256 42.3372C1.4367 41.477 0.909023 40.484 0.63537 39.4159C0.463327 38.7693 0.794712 38.0407 1.3628 37.7024C1.73922 37.4911 2.18261 37.4761 2.59597 37.3838C7.15801 36.6309 11.7374 35.3042 15.5939 32.6751C17.4159 31.4026 19.0786 29.8115 20.1201 27.8255C20.3338 27.448 20.4446 27.023 20.6709 26.6524C21.2748 25.5451 22.2666 24.6283 23.4559 24.1918C24.7757 17.414 26.077 10.6327 27.391 3.85377C27.6092 2.8192 27.645 1.61836 28.4752 0.851671ZM29.2627 2.59635C28.4556 6.74618 27.6635 10.8983 26.8483 15.047C26.301 18.0121 25.6844 20.9646 25.1521 23.9332C25.9442 23.9794 26.7502 24.1029 27.4626 24.4724C28.802 17.5664 30.1345 10.6593 31.4715 3.75331C31.5339 3.41269 31.6528 3.07669 31.632 2.72683C31.5628 2.10447 30.9589 1.5918 30.3307 1.65069C29.8181 1.69803 29.3712 2.09408 29.2627 2.59635ZM21.8579 27.8856C22.7331 28.9525 24.1025 29.5437 25.4616 29.6406C26.794 29.6799 28.1508 29.5517 29.4082 29.0853C29.0144 27.6512 27.9833 26.4053 26.6047 25.8257C25.9569 25.567 25.2376 25.4308 24.5459 25.5716C23.2954 25.7402 22.3221 26.7621 21.8579 27.8856ZM13.4001 35.7765C9.88645 37.5084 6.04839 38.4622 2.19646 39.0811C2.42508 39.8732 2.79804 40.6156 3.30031 41.2715C6.60377 40.7242 9.94996 40.036 12.9394 38.4657C13.198 38.3317 13.5386 38.3721 13.7592 38.565C14.2037 38.8906 14.1275 39.7 13.6021 39.9032C10.7929 41.2738 7.76882 42.2275 4.66742 42.642C5.6177 43.4457 6.71808 44.0565 7.85657 44.5484C7.98589 44.6096 8.11752 44.6165 8.25493 44.5715C11.1393 43.7239 13.9739 42.6062 16.5026 40.9586C18.3962 39.7473 20.0959 38.2105 21.3822 36.3584C21.6674 35.8654 22.486 35.8989 22.7262 36.4161C22.9248 36.7187 22.8232 37.1032 22.6142 37.3699C20.4919 40.4101 17.3524 42.5901 14.0247 44.1362C12.9128 44.6292 11.7963 45.1326 10.6231 45.4675C11.354 45.7307 12.1276 45.8335 12.8862 45.9836C13.7672 46.1637 14.6609 46.2942 15.5604 46.3381C15.6747 46.3589 15.7902 46.3785 15.9068 46.397C17.9979 45.3636 19.9123 43.9583 21.4468 42.1952C21.7574 41.7553 22.5114 41.7668 22.7862 42.2402C23.0172 42.5693 22.904 43.0127 22.6315 43.2794C21.5912 44.4641 20.403 45.5137 19.0971 46.397C21.4145 46.2734 23.6961 45.5298 25.6313 44.2482C24.89 43.2009 24.5425 41.8569 24.8127 40.5902C25.0932 39.23 25.9812 38.0015 27.2132 37.3491C27.354 37.2556 27.5815 37.2059 27.5769 36.9935C27.8332 35.6137 28.7096 34.3643 29.9474 33.6923C29.9093 32.6889 29.8077 31.689 29.6737 30.6937C28.7697 30.9708 27.8378 31.1821 26.8887 31.1983C24.8115 31.465 22.5923 30.8519 21.0635 29.3889C19.2241 32.2317 16.4079 34.3031 13.4001 35.7765ZM37.1109 33.8551C36.35 34.1369 35.6756 34.6207 35.1422 35.2303C34.8708 35.5629 34.3282 35.5444 34.0222 35.273C33.013 34.5191 31.542 34.5064 30.5028 35.2084C29.6391 35.7753 29.1022 36.796 29.0987 37.826C29.1033 38.2544 28.6865 38.4818 28.332 38.5938C27.0989 39.0141 26.2433 40.3212 26.3333 41.6179C26.346 43.2609 27.8944 44.6696 29.5248 44.5853C30.1472 44.6003 30.6991 44.2909 31.2498 44.0484C31.6632 43.8891 32.0662 44.1835 32.2786 44.5207C33.2324 45.7411 34.7785 46.4917 36.3315 46.4397C37.6085 46.4755 38.8683 45.9455 39.8001 45.0841C40.0668 44.8451 40.2723 44.5137 40.6152 44.374C41.151 44.2124 41.5413 44.74 42.0378 44.8347C43.6993 45.4698 45.7511 44.6049 46.4589 42.9757C46.9162 42.0612 46.937 40.9389 46.5028 40.0129C46.0652 38.9506 45.0664 38.1574 43.9453 37.9311C43.6012 37.8687 43.152 37.7544 43.0839 37.348C42.8322 36.1367 42.1359 35.0063 41.084 34.3355C39.9282 33.563 38.4191 33.4094 37.1109 33.8551Z" fill="black"/>
<path d="M6.39326 9.88558C6.74427 9.5796 7.21422 9.77589 7.61604 9.8394C10.0373 10.2516 12.4552 10.6811 14.8719 11.1188C16.7978 11.449 18.7261 11.7781 20.6475 12.1406C21.1948 12.263 21.4257 13.0262 21.0296 13.4281C20.6428 13.9188 19.9812 13.622 19.4766 13.5481C16.4895 13.0182 13.5036 12.4893 10.5154 11.9686C9.22447 11.6915 7.90701 11.5564 6.62073 11.2573C6.0307 11.1037 5.90022 10.2274 6.39326 9.88558Z" fill="black"/>
<path d="M10.2113 15.1464C10.3291 14.7561 10.7817 14.4859 11.1812 14.5945C11.7944 14.718 12.4121 14.8254 13.031 14.9212C15.2641 15.3103 17.4949 15.7191 19.7303 16.099C20.1517 16.1579 20.4958 16.5562 20.4081 16.9904C20.4335 17.4234 20.0039 17.6705 19.6275 17.7132C18.0468 17.443 16.4719 17.1335 14.8877 16.8795C13.5113 16.5828 12.1061 16.4384 10.7332 16.1186C10.3233 16.0078 10.0912 15.5494 10.2113 15.1464Z" fill="black"/>
<path d="M38.8822 20.1418C39.5761 19.8751 40.3613 20.0494 40.9721 20.4374C41.7746 20.9939 42.2203 22.0678 41.9385 23.018C41.7111 23.906 40.9409 24.6138 40.0414 24.7824C39.471 24.8447 38.8614 24.7824 38.3718 24.4625C37.6097 24.0007 37.1259 23.0919 37.2183 22.2006C37.3084 21.2699 37.9792 20.412 38.8822 20.1418ZM38.8152 22.45C38.8048 23.0134 39.4907 23.3887 39.9756 23.1231C40.3382 22.9765 40.4548 22.5585 40.419 22.2006C40.2989 22.0089 40.1765 21.8034 39.9652 21.7029C39.4676 21.4004 38.7563 21.883 38.8152 22.45Z" fill="black"/>
<path d="M7.99742 24.9816C8.29417 24.7311 8.76989 24.7726 9.03084 25.0578C9.45691 25.477 9.89452 25.888 10.2917 26.336C10.6728 26.7748 10.3356 27.5196 9.77559 27.5831C9.38301 27.6616 9.0701 27.3752 8.82762 27.1108C8.51125 26.7713 8.15792 26.4677 7.8554 26.1167C7.57251 25.7806 7.65218 25.2414 7.99742 24.9816Z" fill="black"/>
<path d="M12.91 24.8887C13.3846 24.6197 14.0393 25.0203 14.0347 25.5619C14.0924 26.0711 13.604 26.3505 13.3107 26.6807C13.0093 26.9544 12.7611 27.2938 12.417 27.5178C11.9251 27.8065 11.2312 27.4001 11.2346 26.8343C11.2231 26.4221 11.5891 26.1715 11.8408 25.9025C12.2034 25.5711 12.5105 25.1762 12.91 24.8887Z" fill="black"/>
<path d="M44.0897 24.904C45.5746 24.4606 47.2916 25.5264 47.5387 27.0598C47.8655 28.4742 46.8898 30.0191 45.4684 30.3182C43.8611 30.7881 42.0322 29.443 42.0275 27.7641C41.8971 26.4697 42.8554 25.2319 44.0897 24.904ZM44.4685 26.4547C44.308 26.5032 44.166 26.5967 44.0378 26.7018C43.4085 27.1752 43.5043 28.3149 44.2306 28.6509C44.9107 29.0931 45.9349 28.57 45.9822 27.7618C46.1266 26.9454 45.2548 26.1938 44.4685 26.4547Z" fill="black"/>
<path d="M9.50197 28.4276C10.0955 28.2902 10.6682 28.9911 10.3795 29.5407C10.0955 29.9714 9.67286 30.2866 9.32646 30.6654C9.08514 30.8813 8.87384 31.2277 8.50319 31.1942C7.89007 31.3027 7.42937 30.5072 7.77461 30.0084C8.02979 29.6631 8.37618 29.3964 8.666 29.08C8.92811 28.8468 9.13594 28.505 9.50197 28.4276Z" fill="black"/>
<path d="M11.9386 28.4253C12.2053 28.3722 12.479 28.4842 12.6603 28.6793C13.0459 29.0707 13.442 29.4518 13.8242 29.8478C14.2491 30.2681 13.98 31.1503 13.3554 31.1791C12.83 31.2819 12.5263 30.7739 12.1926 30.4713C11.8705 30.0926 11.367 29.8132 11.2527 29.2971C11.2169 28.8883 11.5368 28.4934 11.9386 28.4253Z" fill="black"/>
<path d="M37.7564 35.3393C39.3394 34.77 41.2308 35.9143 41.4756 37.5701C41.5956 38.0816 41.0911 38.5585 40.5946 38.4938C40.2482 38.4476 39.9549 38.1693 39.8914 37.8264C39.769 37.077 38.8695 36.5771 38.1709 36.8808C37.8269 36.9985 37.6202 37.3241 37.3107 37.4927C36.7854 37.7306 36.1295 37.2202 36.2288 36.6556C36.23 36.3877 36.4343 36.1926 36.6087 36.0171C36.9251 35.6961 37.328 35.4732 37.7564 35.3393Z" fill="black"/>
</svg>

<svg xmlns="http://www.w3.org/2000/svg" width="49" height="49" fill="none"><path fill="#F7F7F7" d="M29.263 2.597a1.23 1.23 0 0 1 1.068-.946c.628-.059 1.232.454 1.301 1.076.021.35-.098.686-.16 1.027-1.337 6.906-2.67 13.813-4.01 20.719-.712-.37-1.518-.493-2.31-.54.533-2.968 1.15-5.92 1.697-8.886.815-4.148 1.607-8.3 2.414-12.45M38.816 22.452c-.059-.567.652-1.05 1.15-.748.211.101.334.306.454.498.035.358-.081.776-.444.923-.485.265-1.17-.11-1.16-.673M21.856 27.886c.464-1.123 1.437-2.145 2.688-2.314.691-.14 1.41-.004 2.058.254 1.379.58 2.41 1.826 2.804 3.26-1.258.466-2.614.594-3.947.555-1.359-.097-2.728-.688-3.604-1.755M44.47 26.455c.786-.26 1.657.49 1.513 1.307-.047.808-1.071 1.331-1.751.89-.727-.337-.822-1.477-.193-1.95.128-.105.27-.199.43-.247M13.399 35.776c3.008-1.473 5.824-3.545 7.663-6.387 1.53 1.463 3.748 2.076 5.826 1.809.949-.016 1.88-.227 2.785-.505.134.996.235 1.996.273 3-1.238.671-2.114 1.92-2.37 3.3.004.213-.223.262-.364.356-1.232.652-2.12 1.88-2.4 3.241-.27 1.267.077 2.61.818 3.658a13.16 13.16 0 0 1-6.534 2.149 18.5 18.5 0 0 0 3.534-3.118c.273-.267.386-.71.155-1.039-.275-.473-1.029-.485-1.34-.045-1.534 1.763-3.448 3.168-5.54 4.202l-.346-.06c-.9-.043-1.793-.174-2.674-.354-.758-.15-1.532-.252-2.263-.516 1.173-.335 2.29-.838 3.402-1.331 3.327-1.546 6.467-3.726 8.589-6.766.209-.267.31-.652.112-.954-.24-.517-1.059-.55-1.344-.058-1.286 1.852-2.986 3.39-4.88 4.6-2.528 1.648-5.363 2.766-8.247 3.613a.52.52 0 0 1-.399-.023c-1.138-.492-2.238-1.103-3.189-1.906 3.102-.415 6.126-1.369 8.935-2.74.525-.202.602-1.012.157-1.337a.75.75 0 0 0-.82-.1c-2.99 1.57-6.335 2.259-9.639 2.806a6.6 6.6 0 0 1-1.104-2.19c3.852-.62 7.69-1.573 11.204-3.305"/><path fill="#48FDBC" d="M36.311 34.656c1.309-.446 2.818-.292 3.974.48 1.051.671 1.748 1.801 2 3.013.068.406.517.52.86.583 1.122.226 2.12 1.02 2.558 2.082a3.45 3.45 0 0 1-.044 2.962c-.707 1.63-2.76 2.494-4.42 1.86-.497-.095-.887-.623-1.423-.461-.343.14-.549.47-.815.71-.932.861-2.192 1.391-3.469 1.355-1.553.052-3.1-.698-4.053-1.919-.212-.337-.615-.631-1.029-.472-.55.243-1.102.552-1.725.537-1.63.084-3.178-1.324-3.191-2.968-.09-1.296.765-2.603 1.999-3.023.354-.113.77-.34.766-.768.004-1.03.54-2.051 1.404-2.618 1.04-.702 2.51-.69 3.52.065.306.271.848.29 1.12-.043a4.9 4.9 0 0 1 1.968-1.375"/><path fill="#000" d="M28.475.852c.987-1.027 2.776-1.06 3.815-.095.641.577 1.016 1.469.934 2.331-.314 1.639-.627 3.277-.948 4.914q-1.601 8.292-3.205 16.584c-.05.263-.077.53-.17.784.237.297.537.539.773.84.9 1.094 1.408 2.478 1.537 3.882.138 1.017.254 2.04.313 3.065.688-.12 1.389-.05 2.06.125q.453.15.88.363a6.05 6.05 0 0 1 3.236-1.562c1.848-.298 3.823.315 5.16 1.631.778.74 1.327 1.693 1.638 2.717 1.362.314 2.544 1.25 3.233 2.457.678 1.22.896 2.72.446 4.055-.418 1.48-1.559 2.714-2.973 3.304-.95.366-2.005.51-3.007.285-.422-.083-.828-.235-1.236-.365-1.47 1.468-3.64 2.109-5.684 1.823a6.9 6.9 0 0 1-4.011-2.18c-1.455.625-3.186.444-4.492-.443-2.606 1.947-5.938 2.667-9.141 2.658-.614-.02-1.233.027-1.842-.07-3.198-.21-6.384-.926-9.305-2.262-1.655-.816-3.18-1.934-4.363-3.356-.686-.86-1.214-1.853-1.488-2.921-.172-.647.16-1.375.728-1.714.376-.21.82-.226 1.233-.318 4.562-.753 9.141-2.08 12.998-4.709 1.822-1.272 3.485-2.863 4.526-4.85.214-.377.325-.802.55-1.173.605-1.107 1.597-2.024 2.786-2.46 1.32-6.778 2.621-13.56 3.935-20.338.218-1.035.254-2.236 1.084-3.002m.788 1.744c-.807 4.15-1.6 8.302-2.415 12.451-.547 2.965-1.164 5.918-1.696 8.886.792.046 1.598.17 2.31.54 1.34-6.907 2.672-13.814 4.01-20.72.062-.34.18-.676.16-1.026-.07-.623-.673-1.135-1.301-1.076-.513.047-.96.443-1.068.945m-7.405 25.29c.875 1.067 2.244 1.658 3.604 1.755 1.332.039 2.689-.09 3.946-.556-.394-1.434-1.425-2.68-2.803-3.26-.648-.258-1.367-.394-2.06-.253-1.25.168-2.223 1.19-2.687 2.314m-8.458 7.89c-3.514 1.732-7.352 2.686-11.204 3.305a6.6 6.6 0 0 0 1.104 2.19c3.304-.547 6.65-1.235 9.64-2.805a.75.75 0 0 1 .82.099c.444.326.367 1.135-.158 1.338-2.81 1.37-5.833 2.325-8.935 2.739.95.804 2.051 1.414 3.19 1.906q.192.093.398.023c2.884-.847 5.719-1.965 8.248-3.612 1.893-1.212 3.593-2.748 4.88-4.6.284-.494 1.103-.46 1.343.057.199.303.097.687-.112.954-2.122 3.04-5.262 5.22-8.59 6.766-1.111.493-2.228.997-3.4 1.331.73.264 1.504.367 2.262.517.881.18 1.775.31 2.674.354l.347.059c2.09-1.033 4.005-2.439 5.54-4.202.31-.44 1.064-.428 1.34.045.23.33.117.773-.155 1.04a18.5 18.5 0 0 1-3.535 3.117 13.16 13.16 0 0 0 6.534-2.149c-.741-1.047-1.088-2.391-.818-3.658.28-1.36 1.168-2.589 2.4-3.24.141-.094.368-.144.364-.357.256-1.38 1.133-2.629 2.37-3.3a31 31 0 0 0-.273-3c-.904.278-1.836.49-2.785.505-2.078.267-4.297-.346-5.825-1.81-1.84 2.844-4.656 4.915-7.664 6.388m23.71-1.92a4.9 4.9 0 0 0-1.968 1.374c-.271.333-.814.314-1.12.043-1.009-.754-2.48-.767-3.52-.065-.863.567-1.4 1.588-1.403 2.618.004.428-.413.656-.767.768-1.233.42-2.089 1.727-1.999 3.024.013 1.643 1.561 3.052 3.192 2.967.622.015 1.174-.294 1.725-.537.413-.159.816.136 1.029.473.953 1.22 2.5 1.97 4.052 1.919 1.277.035 2.537-.494 3.47-1.356.266-.239.471-.57.814-.71.536-.162.926.366 1.423.46 1.661.636 3.713-.23 4.42-1.858a3.45 3.45 0 0 0 .045-2.963c-.438-1.062-1.437-1.856-2.558-2.082-.344-.062-.793-.177-.861-.583-.252-1.211-.948-2.342-2-3.012-1.156-.773-2.665-.927-3.973-.48"/><path fill="#000" d="M6.393 9.886c.351-.306.821-.11 1.223-.047q3.632.621 7.256 1.28c1.926.33 3.854.66 5.776 1.022.547.122.778.885.382 1.287-.387.49-1.049.194-1.553.12q-4.48-.797-8.962-1.58c-1.29-.277-2.608-.412-3.894-.71-.59-.154-.72-1.03-.228-1.372M10.211 15.146c.118-.39.57-.66.97-.552q.92.184 1.85.327c2.233.39 4.464.798 6.7 1.178.42.059.765.457.677.891.025.433-.404.68-.78.723-1.581-.27-3.156-.58-4.74-.834-1.377-.296-2.782-.44-4.155-.76-.41-.111-.642-.57-.522-.973M38.882 20.142c.694-.267 1.48-.093 2.09.295.803.557 1.248 1.63.966 2.581-.227.888-.997 1.596-1.897 1.764-.57.063-1.18 0-1.67-.32-.761-.461-1.245-1.37-1.153-2.261.09-.931.761-1.789 1.664-2.06m-.067 2.308c-.01.563.676.939 1.16.673.363-.146.48-.565.444-.922-.12-.192-.242-.398-.454-.498-.497-.303-1.209.18-1.15.747M7.997 24.982c.297-.25.773-.21 1.034.076.426.419.864.83 1.26 1.278.382.439.045 1.184-.515 1.247-.393.079-.706-.208-.948-.472-.317-.34-.67-.643-.973-.994-.282-.336-.203-.876.142-1.135M12.91 24.889c.475-.27 1.13.131 1.125.673.057.51-.431.788-.724 1.119-.302.273-.55.613-.894.837-.492.288-1.186-.118-1.182-.684-.012-.412.354-.662.606-.931.362-.332.67-.727 1.069-1.014M44.09 24.904c1.485-.443 3.202.622 3.449 2.156.326 1.414-.65 2.96-2.07 3.258-1.608.47-3.437-.875-3.441-2.554-.13-1.294.827-2.532 2.062-2.86m.378 1.55c-.16.05-.302.143-.43.248-.63.473-.534 1.613.193 1.949.68.442 1.704-.081 1.751-.89.145-.816-.727-1.567-1.514-1.306M9.502 28.428c.593-.138 1.166.563.877 1.113-.284.43-.706.746-1.053 1.124-.24.216-.452.563-.823.53-.613.108-1.074-.688-.728-1.187.255-.345.601-.612.891-.928.262-.233.47-.575.836-.652M11.939 28.425a.8.8 0 0 1 .721.254c.386.392.782.773 1.164 1.169.425.42.156 1.302-.469 1.331-.525.103-.829-.405-1.162-.708-.322-.378-.826-.658-.94-1.174-.036-.409.284-.804.686-.872M37.756 35.34c1.583-.57 3.475.574 3.72 2.23.12.512-.385.989-.881.924a.84.84 0 0 1-.704-.668c-.122-.749-1.021-1.249-1.72-.945-.344.117-.55.443-.86.612-.526.238-1.181-.273-1.082-.837.001-.268.205-.463.38-.639.316-.32.719-.544 1.147-.678"/></svg>
